!!!!SEGMENT: pl-sa--86-a-ii-26--004_pych-leopold--missa-brevis-in-d-sanctus.krn
!!!cenid: 17xx:370
!!!COM: Pych, Leopold
!!!COM-rismID: pe30018039
!!!CDT: <1758->1774
!!!CNT:
!!!OPR: Missa brevis in D
!!!OTL: Sanctus
!!!OMV: 004
!!!PDT:
!!!AGN: Sacred; Mass
!!!SMS-siglum: PL-SA
!!!SMS-shelfmark: 86/A II 26
!!!SMS-shelfwork: 001-004 M
!!!NIFC-rismSourceID: 1001035464
!!!NIFC-rismChildID: 1001035464
!!!NIFC-islandoraID:
!!!URL-pdf-islandora:
!!!URL-scan: https://bc.bdsandomierz.pl/dlibra/publication/1364/edition/1332/content @EN{Scan in the Sandomierz Diocese Digital Library} @PL{Skany w portalu Cyfrowa Biblioteka Diecezjalna w Sandomierzu}
!!!ONB-nifc: UWAGA: części Mszy: Kyrie, Gloria, Credo, Sanctus, Agnus, Dona
!!!AIN: 1 bass 2 clrno 1 organ 1 soprn 2 violn
!!!key: D
!!!OMD:
!!!OMD-mod: Adagio
**kern	**fba	**kern	**kern	**kern	**text	**kern	**text	**kern	**kern
*part7	*part7	*part4	*part3	*part2	*part2	*part1	*part1	*part6	*part5
*staff7	*staff7	*staff4	*staff3	*staff2	*staff2	*staff1	*staff1	*staff6	*staff5
*I"Organo	*	*I"Violino 2ndo	*I"Violino 1mo	*I"Baſso	*	*I"Canto	*	*I"Clarino 2do ex D	*I"Clarino 1mo ex D
*	*	*mI"Violino II	*mI"Violino I	*mI"Basso	*	*mI"Soprano	*	*mI"Clarino II in D	*mI"Clarino I in D
*I'org	*	*I'vl 2	*I'vl 1	*I'B	*	*I'S	*	*I'clno 2 in D	*I'clno 1 in D
*Iorgan	*	*Ivioln	*Ivioln	*Ibass	*	*Isoprn	*	*Iclrno	*Iclrno
*ICklav	*	*ICstr	*ICstr	*ICvox	*	*ICvox	*	*ICbras	*ICbras
*clefF4	*	*clefG2	*clefG2	*clefF4	*	*clefC1	*	*clefG2	*clefG2
*	*	*	*	*	*	*mclefG2	*	*	*
*	*	*	*	*	*	*	*	*ITrd-1c-2	*ITrd-1c-2
*k[f#c#]	*	*k[f#c#]	*k[f#c#]	*k[f#c#]	*	*k[f#c#]	*	*k[f#c#]	*k[f#c#]
*D:	*	*D:	*D:	*D:	*	*D:	*	*D:	*D:
*M3/4	*	*M3/4	*M3/4	*M3/4	*	*M3/4	*	*M3/4	*M3/4
=1	=1	=1	=1	=1	=1	=1	=1	=1	=1
!LO:MO:mod=*2\left	!	!LO:MO:mod=*2\left	!LO:MO:mod=*2\left	!LO:MO:mod=*2\left	!	!	!	!	!
*2\right	*	*2\right	*2\right	*2\right	*	*	*	*	*
!LO:TX:a:Bi:t=Ada:rj:mod=	!	!LO:TX:a:Bi:t=Ada:rj:mod=	!LO:TX:a:Bi:t=Ada:rj:mod=	!	!	!LO:TX:a:Bi:t=Ada:rj:mod=	!	!LO:TX:a:Bi:t=Ada:rj:mod=	!LO:TX:a:Bi:t=Ada:rj:mod=
!	!	!	!	!	!LO:MO:mod=San-	!LO:TX:a:i:t=3:problem=w źródle tylko 2 takty pauz:mod=	!	!LO:TX:a:Bi:t=2:mod=	!LO:TX:a:i:t=3:mod=
2d\	.	2dd\	2dd\	2d\	ſan-	1.r	.	1.r	1.r
4A\	.	4a/	4a/	4A\	-ctus	.	.	.	.
=2	=2	=2	=2	=2	=2	=2	=2	=2	=2
!	!	!LO:SIC:s=4fn|	!LO:SIC:s=4fn|	!	!	!	!	!	!
4Fn|>\	.	4fn/	4fn/	4Fn\	Do-	.	.	.	.
!	!	!LO:SIC:s=4e|	!	!	!	!	!	!	!
4E|>\	.	4e/	4e|</	4E\	-mi-	.	.	.	.
!	!	!LO:SIC:s=4d|	!	!	!	!	!	!	!
4D|>\	.	4d/	4d|</	4D\	-nus	.	.	.	.
!!LO:MO:ori
=3	=3	=3	=3	=3	=3	=3	=3	=3	=3
!	!	!	!	!	!	!	!	!	!LO:TX:a:t=P:problem=za długa pauza
2.ryy	.	2.ryy	2.ryy	2.ryy	.	2.ryy	.	2.ryy	2.r
!!LO:MO:end
=4	=4	=4	=4	=4	=4	=4	=4	=4	=4
4A\	.	4a/	4a/	4A\	De-	4r	.	4r	4r
4AA/	.	4A/	4A/	4AA/	.	4r	.	4r	4r
4r	.	4ff#X 4a 4d/	4ff#X 4a 4d/	4D\	-us	4ff#\	Do-	4dd\	4ff#\
=5	=5	=5	=5	=5	=5	=5	=5	=5	=5
2.A\	6 4	8dd\L	8ff#\L	8A\	Do-	8ff#\L	-mi-	8dd\L	8ff#\L
.	7 3	8cc#\J	8ee\J	8A\	-mi-	8ee\J	.	8a\J	8ee\J
!	!	!	!	!	!	!LO:MO:mod=*2\left	!	!LO:MO:mod=*2\left	!LO:MO:mod=*2\left
*	*	*	*	*	*	*2\right	*	*2\right	*2\right
.	.	2ee\	2gg\	2A\	-nus	2gg\	-nus	2ee\	2gg\
=6	=6	=6	=6	=6	=6	=6	=6	=6	=6
2.A\	7 9	8ee\L	8gg\L	2A\	De-	8gg\L	De-	8ee\L	8gg\L
.	8 6	8dd\J	8ff#\J	.	.	8ff#\J	.	8dd\J	8ff#\J
.	.	2ff#\	2aa\	.	.	2aa\	-us	2ff#\	2aa\
.	.	.	.	4A\	-us	.	.	.	.
=7	=7	=7	=7	=7	=7	=7	=7	=7	=7
2.A\	8 6	4ff#\	4aa\	2A\	ſab-	4aa\	ſab-	4ff#\	4aa\
.	7 5	4ee\	4gg\	.	.	(>4gg\	-ba-	4ee\	4gg\
.	6 4	4dd\	4ff#\	4A\	-ba-	4ff#\)	.	4dd\	4ff#\
=8	=8	=8	=8	=8	=8	=8	=8	=8	=8
.	.	.	.	.	.	.	.	.	8qqff#
2.A\	5	2.cc#\	2.ee\	2.A\	-oth	2.ee\	-oth	2.a/	2.ee\
.	#	.	.	.	.	.	.	.	.
=9||	=9||	=9||	=9||	=9||	=9||	=9||	=9||	=9||	=9||
!!!OMD:
!!!OMD-mod: Allegro
!	!	!	!LO:MO:null:mod=*null	!	!	!	!	!	!
*	*	*	*k[f#c#]	*	*	*	*	*	*
*M3/4	*	*M3/4	*M3/4	*M3/4	*	*M3/4	*	*M3/4	*M3/4
!LO:TX:a:Bi:t=Allo:rj:mod=	!	!LO:TX:a:Bi:t=Allo:rj:mod=	!LO:TX:a:Bi:t=Allo:rj:mod=	!LO:TX:a:Bi:t=Allo:rj:mod=	!	!	!	!LO:TX:a:Bi:t=Allo:rj:mod=	!LO:TX:a:Bi:t=Allo:rj:mod=
!LO:TX:b:Bi:t=Pleni:mod=:rj	!	!LO:TX:b:Bi:t=Pleni:mod=:rj	!LO:TX:b:Bi:t=Pleni:mod=	!	!	!	!	!LO:TX:b:Bi:t=Pleni:mod=:rj	!LO:TX:b:Bi:t=Pleni:mod=
4d\	.	4dd\	4dd\	4d\	Ple-	4dd\	Ple-	4d/	4dd\
4d\	.	4dd\	4dd\	4d\	-ni	4dd\	-ni-	4d/	4dd\
4d\	.	4dd\	4dd\	4d\	ſunt	4dd\	-ſunt	4d/	4dd\
!	!	!	!LO:LB:=original	!	!	!	!	!	!
=10	=10	=10	=10	=10	=10	=10	=10	=10	=10
4d\	.	4dd\	4dd\	4d\	cel-	4dd\	cel-	4d/	4dd\
4D/	.	4d/	4d/	4D/	-li	4d/	-li	4r	4r
4D/	.	4dd\	4ff#\	4D/	et	4ff#\	et	4dd\	4ff#\
!	!	!LO:LB:=original	!	!LO:LB:=original	!	!	!	!LO:LB:g=original	!LO:LB:g=original
=11	=11	=11	=11	=11	=11	=11	=11	=11	=11
!LO:SIC:v:s=4A	!	!	!	!	!	!	!	!	!
4G\	.	8cc#\L	8ee\L	4A\	ter-	8ee\L	ter-	8a/L	8ee\L
.	.	8b\J	8dd\J	.	.	8dd\J	.	8f#/J	8dd\J
!	!	!	!	!	!	!LO:LB:g=original	!	!	!
4AA/	.	4cc#\	4ee\	4AA/	-ra	4ee\	-ra	4a/	4ee\
!	!	!	!	!	!	!	!LO:MO:mod=et	!	!
4AA/	.	4ee\	4gg\	4AA/	et	4gg\	[et]	4ee\	4gg\
=12	=12	=12	=12	=12	=12	=12	=12	=12	=12
4d\	.	2.dd\	2.ff#\	4d\	te-	2.ff#\	ter-	4dd\	4ff#\
8D\L	.	.	.	8D\L	.	.	.	4r	4r
8E\	.	.	.	8E\J	.	.	.	.	.
8F#\	.	.	.	8F#\L	.	.	.	4dd\	4ff#\
8G\J	.	.	.	8G\J	.	.	.	.	.
=13	=13	=13	=13	=13	=13	=13	=13	=13	=13
4A\	6 4	2cc#\	4.ee\	2A\	-ra	2ee\	-ra	2a/	2ee\
4AA/	3	.	.	.	.	.	.	.	.
.	.	.	8a\L	.	.	.	.	.	.
4r	.	4a/	8dd\	4r	.	4r	.	4r	4r
.	.	.	8ff#\J	.	.	.	.	.	.
=14	=14	=14	=14	=14	=14	=14	=14	=14	=14
!	!	!	!	!LO:MO:mod=2.d	!	!	!	!	!
4d\	.	8.ff#\L	8.aa\L	2d\	glo-	4aa\	glo-	4ff#\	4aa\
.	.	16ff#\K	16aa\K	.	.	.	.	.	.
4D/	.	8.ee\	8.gg\	.	.	4gg\	-ri-	4r	4r
.	.	16ee\K	16gg\K	.	.	.	.	.	.
!	!	!	!	!LO:MO:mod=.:null	!	!	!	!	!
4r	.	8.dd\	8.ff#\	4r	.	4ff#\	-a	4r	4r
.	.	16dd\Jk	16ff#\Jk	.	.	.	.	.	.
=15	=15	=15	=15	=15	=15	=15	=15	=15	=15
*	*	*	*	*	*	*	*ij	*	*
4d\	.	8.ff#\L	8.aa\L	2.D/	.	4aa\	glo-	4ff#\	4aa\
.	.	16ff#\K	16aa\K	.	.	.	.	.	.
4D/	.	8.ee\	8.gg\	.	.	4gg\	-ri-	4ee\	4gg\
.	.	16ee\K	16gg\K	.	.	.	.	.	.
4r	.	8.dd\	8.ff#\	.	.	4ff#\	-a	4dd\	4ff#\
.	.	16dd\Jk	16ff#\Jk	.	.	.	.	.	.
*	*	*	*	*	*	*	*Xij	*	*
!LO:LB:g=original	!	!	!	!	!	!	!	!	!
=16	=16	=16	=16	=16	=16	=16	=16	=16	=16
4A\	.	8.ee\L	8.gg\L	2.A\	.	4gg\	glo-	4ee\	4gg\
.	.	16ee\K	16gg\K	.	.	.	.	.	.
4AA/	.	8.dd\	8.ff#\	.	.	4ff#\	-ri-	4r	4r
.	.	16dd\K	16ff#\K	.	.	.	.	.	.
4r	.	8.cc#\	8.ee\	.	.	4ee\	-a	4r	4r
.	.	16cc#\Jk	16ee\Jk	.	.	.	.	.	.
=17	=17	=17	=17	=17	=17	=17	=17	=17	=17
*	*	*	*	*	*	*	*ij	*	*
4A\	.	8.ee\L	8.gg\L	2.AA/	.	4gg\	glo-	4ee\	4gg\
.	.	16ee\K	16gg\K	.	.	.	.	.	.
4AA/	.	8.dd\	8.ff#\	.	.	4ff#\	-ri-	4dd\	4ff#\
.	.	16dd\K	16ff#\K	.	.	.	.	.	.
4r	.	8.cc#\	8.ee\	.	.	4ee\	-a	4a/	4ee\
.	.	16cc#\Jk	16ee\Jk	.	.	.	.	.	.
*	*	*	*	*	*	*	*Xij	*	*
=18	=18	=18	=18	=18	=18	=18	=18	=18	=18
4d\	.	8dd'>\L	8ff#'>\L	4d\	.	2.ff#\	glo-	4dd\	4ff#\
.	.	8dd'>\	8ff#'>\	.	.	.	.	.	.
4B\	.	8dd'>\	8ff#'>\	4B\	.	.	.	4dd\	4ff#\
.	.	8dd'>\	8ff#'>\	.	.	.	.	.	.
4A\	.	8dd'>\	8ff#'>\	4A\	.	.	.	4r	4r
.	.	8dd'>\J	8ff#'>\J	.	.	.	.	.	.
=19	=19	=19	=19	=19	=19	=19	=19	=19	=19
*	*	*tremolo	*tremolo	*	*	*	*	*	*
!	!	!	!LO:MO:mod=8ff#'L	!	!	!	!	!	!
2.G#X\	7	8dd'>\L	8ff#\L	2.G#X\	.	2.ff#\	.	4dd\	4ff#\
!	!	!	!LO:MO:mod=8ff#'	!	!	!	!	!	!
.	.	8dd'>\	8ff#\	.	.	.	.	.	.
!	!	!	!LO:MO:mod=8ff#'	!	!	!	!	!	!
.	.	8dd'>\	8ff#\	.	.	.	.	4dd\	4ff#\
!	!	!	!LO:MO:mod=8ff#'	!	!	!	!	!	!
.	.	8dd'>\	8ff#\	.	.	.	.	.	.
!	!	!	!LO:MO:mod=8ff#'	!	!	!	!	!	!
.	.	8dd'>\	8ff#\	.	.	.	.	4r	4r
!	!	!	!LO:MO:mod=8ff#'J	!	!	!	!	!	!
.	.	8dd'>\J	8ff#\J	.	.	.	.	.	.
*	*	*Xtremolo	*Xtremolo	*	*	*	*	*	*
!	!	!LO:LB:g=original	!LO:LB:g=original	!	!	!	!	!	!
=20	=20	=20	=20	=20	=20	=20	=20	=20	=20
!	!	!	!	!	!	!	!LO:MO:mod=.:null	!LO:TX:a:t=P:problem=mixed beam:mod=	!
2A\	.	8cc#\L	8ee\L	8A\	.	8ee\	-ri-	8a/L	8ee\L
!	!	!	!	!	!	!	!LO:MO:mod=-ri-	!	!
.	.	8ee\J	8gg\J	16D\	-ri-	16gg\	-a	8ee\J	8gg\J
!	!	!	!	!	!	!	!LO:MO:mod=-a	!	!
.	.	.	.	16D\	-a	16gg\	tu-	.	.
!	!	!	!	!	!	!	!LO:MO:null:mod=tu-	!	!
.	.	4dd\	4ff#\	2A\	tu-	4ff#\	.	4dd\	4ff#\
4AA/	.	4cc#\	4ee\	.	.	4ee\	.	4a/	4ee\
=21	=21	=21	=21	=21	=21	=21	=21	=21	=21
2.D\	.	2.dd\	2.dd\	2.D\	-a	2.dd\	-a	2.dd\	2.ff#\
==	==	==	==	==	==	==	==	==	==
*-	*-	*-	*-	*-	*-	*-	*-	*-	*-
!!!system-decoration: [(s1,s2)][(s3,s4)][(s5,s6)]s7
!!!RDF**kern: | = vertical stroke
!!LO:MO:ori
!!!RDF**kern: > = above
!!!RDF**kern: < = below
!!LO:MO:end
!!!filter-modern: sic -sq | autostem -r | tie -s | shed -k -e "s/[<>]//g" | humtr -p | modori -m
!!!ENC: Tomasz Grochalski
!!!END: 2020-05-12
!!!ENC: Wojciech Jakubiak-Danek
!!!END: 2020-12-01
!!!ENC-modern: Marta Lawrence
!!!END-modern: 2022-06-21
!!!YEC: Copyright 2022 Narodowy Instytut Fryderyka Chopina (https://polishscores.org)
!!!YEM: License CC-BY-4.0 (https://creativecommons.org/licenses/by/4.0)
